packages/core/src/svgs/elk.svg

<svg width="24" height="24" viewBox="0 0 24 24" fill="none" xmlns="http://www.w3.org/2000/svg">
<g clip-path="url(#clip0_31_9806)">
<path d="M0 0H24V24H0V0Z" fill="#019F55"/>
<path d="M12 15.0001V13.3244L6.77148 8.13436C6.62909 7.9738 6.46628 7.83259 6.28719 7.71436C6.04291 7.71436 5.77291 7.80436 5.62291 7.92436C5.46862 8.04436 5.25862 8.70436 5.04862 9.00436C4.83433 9.30436 3.72005 9.54436 3.56576 9.66436C3.41576 9.78436 3.42862 10.8858 3.42862 11.2758C3.42862 11.5715 4.08005 11.5715 4.20005 11.5715C4.32005 11.5715 4.47433 11.3358 4.47433 11.2458C5.46005 10.6201 6.15862 10.7058 6.42862 10.7144L7.71433 11.7858C7.44005 11.9144 6.76291 12.2572 6.64291 12.3044C6.48862 12.3644 6.42862 12.6344 6.42862 13.3244C6.42862 14.0144 6.60862 14.1429 6.85291 14.1429C7.09291 14.1429 7.18291 14.0529 7.24291 13.9929C7.51291 13.7272 8.74291 13.4358 9.24862 13.2858C9.49291 13.5258 9.80576 14.0486 9.85719 14.1429C9.34291 14.2329 8.55433 14.6744 8.40005 14.7644C8.25005 14.8544 8.14291 16.0929 8.14291 16.3929C8.14291 16.6372 8.71719 16.7144 9.00005 16.7144C9.04291 16.6715 9.12862 16.5686 9.12862 16.4744C9.68576 16.0458 10.9672 15.7115 11.5715 15.6429L12 15.0001ZM12 15.0001V13.3244L17.2286 8.13436C17.3829 7.98436 17.6572 7.71436 17.7129 7.71436C17.9572 7.71436 18.2272 7.80436 18.3772 7.92436C18.5315 8.04436 18.7415 8.70436 18.9515 9.00436C19.1658 9.30436 20.28 9.54436 20.4343 9.66436C20.5843 9.78436 20.5715 10.8858 20.5715 11.2758C20.5715 11.5715 19.92 11.5715 19.8 11.5715C19.68 11.5715 19.5258 11.3358 19.5258 11.2458C18.54 10.6201 17.8415 10.7058 17.5715 10.7144L16.2858 11.7858C16.5558 11.9144 17.2372 12.2572 17.3572 12.3044C17.5115 12.3644 17.5715 12.6344 17.5715 13.3244C17.5715 14.0144 17.3915 14.1429 17.1472 14.1429C16.9072 14.1429 16.8172 14.0529 16.7572 13.9929C16.4872 13.7272 15.2572 13.4358 14.7515 13.2858C14.5072 13.5258 14.1943 14.0486 14.1429 14.1429C14.6572 14.2329 15.4458 14.6744 15.6 14.7644C15.75 14.8544 15.8572 16.0929 15.8572 16.3929C15.8572 16.6372 15.2829 16.7144 15 16.7144C14.9572 16.6715 14.8715 16.5686 14.8715 16.4744C14.3143 16.0458 13.0329 15.7115 12.4286 15.6429L12 15.0001Z" fill="#FFFEFC"/>
</g>
<defs>
<clipPath id="clip0_31_9806">
<rect width="24" height="24" fill="white"/>
</clipPath>
</defs>
</svg>

<svg xmlns="http://www.w3.org/2000/svg" width="24" height="24" fill="none" viewBox="0 0 24 24"><g clip-path="url(#a)"><path fill="#019F55" d="M0 0h24v24H0z"/><path fill="#FFFEFC" d="M12 15v-1.676l-5.229-5.19a2.5 2.5 0 0 0-.484-.42c-.244 0-.514.09-.664.21-.154.12-.364.78-.574 1.08-.215.3-1.329.54-1.483.66-.15.12-.137 1.222-.137 1.612 0 .296.651.296.771.296s.274-.236.274-.326c.986-.626 1.685-.54 1.955-.532l1.285 1.072c-.274.128-.951.471-1.071.518-.154.06-.214.33-.214 1.02s.18.819.424.819c.24 0 .33-.09.39-.15.27-.266 1.5-.557 2.006-.707.244.24.557.763.608.857-.514.09-1.303.531-1.457.621-.15.09-.257 1.329-.257 1.629 0 .244.574.321.857.321.043-.042.129-.145.129-.24.557-.428 1.838-.763 2.443-.831zm0 0v-1.676l5.229-5.19c.154-.15.428-.42.484-.42.244 0 .514.09.664.21.155.12.364.78.575 1.08.214.3 1.328.54 1.482.66.15.12.137 1.222.137 1.612 0 .296-.651.296-.771.296s-.274-.236-.274-.326c-.986-.626-1.684-.54-1.954-.532l-1.286 1.072c.27.128.951.471 1.071.518.155.06.215.33.215 1.02s-.18.819-.425.819c-.24 0-.33-.09-.39-.15-.27-.266-1.5-.557-2.006-.707-.244.24-.557.763-.608.857.514.09 1.303.531 1.457.621.15.09.257 1.329.257 1.629 0 .244-.574.321-.857.321-.043-.042-.129-.145-.129-.24-.557-.428-1.838-.763-2.442-.831z"/></g><defs><clipPath id="a"><path fill="#fff" d="M0 0h24v24H0z"/></clipPath></defs></svg>
